X:2718
L:1/8
Q:3/8=110
M:6/8
K:D
 d2 e f2 d | e2 c d2 B | B2 f fdB | BcB fdB | d2 e f2 d | e2 c d2 B | A2 e ecA | ABA ecA |:

